X: 29034
T: Ned Naughton's
R: hornpipe
M: 4/4
K: Dmajor
|:Ac|dcde dAFA|Bcde dcBA|BGGB AFdF|EFGA GFED|
dcde fdAF|EFGA Bcde|fdcd BGEC|D2 D2 D2:|
|:cB|A^GAB Acef|gefd dcBA|BGGB AFdF|EFGA GFED|
dAFA GBEG|FAdf ecAF|GBAG FDEC|D2 D2 D2:|

